app/assets/icons/polaris/MaximizeMinor.svg

<svg viewBox="0 0 20 20" xmlns="http://www.w3.org/2000/svg"><path d="M4.5 3a1.5 1.5 0 0 0-1.5 1.5v2.5a1 1 0 0 0 2 0v-2h2a1 1 0 0 0 0-2h-2.5zm-1.5 12.5a1.5 1.5 0 0 0 1.5 1.5h2.5a1 1 0 1 0 0-2h-2v-2a1 1 0 1 0-2 0v2.5zm14 0a1.5 1.5 0 0 1-1.5 1.5h-2.5a1 1 0 1 1 0-2h2v-2a1 1 0 1 1 2 0v2.5zm0-11a1.5 1.5 0 0 0-1.5-1.5h-2.5a1 1 0 1 0 0 2h2v2a1 1 0 1 0 2 0v-2.5z"/></svg>

<svg viewBox="0 0 20 20" xmlns="http://www.w3.org/2000/svg"><path d="M4.5 3A1.5 1.5 0 0 0 3 4.5V7a1 1 0 0 0 2 0V5h2a1 1 0 0 0 0-2H4.5zM3 15.5A1.5 1.5 0 0 0 4.5 17H7a1 1 0 1 0 0-2H5v-2a1 1 0 1 0-2 0v2.5zm14 0a1.5 1.5 0 0 1-1.5 1.5H13a1 1 0 1 1 0-2h2v-2a1 1 0 1 1 2 0v2.5zm0-11A1.5 1.5 0 0 0 15.5 3H13a1 1 0 1 0 0 2h2v2a1 1 0 1 0 2 0V4.5z"/></svg>
